X:54
T:Dick Grimstead. THO2.054
O:London
M:2/4
L:1/8
B:Thompson's Compleat Coll. of 200 Favourite Country Dances, vol.2,1765
Z:Transcribed and edited by Fynn Titford-Mock, 2007
Z:abc's:JA/VMP 2009
K:G
g2 dc| BAGA|Bcde|cA A2|g2 dc|
BAGA|Bcdg|B2GG::bg Tg2|af Tf2|
ge Te2|fd Td2|cBca|BABg|AGef|g2G2:|

